svgs/phototan.svg

<svg viewBox="0 0 192 192" xml:space="preserve" style="fill-rule:evenodd;clip-rule:evenodd;stroke-linejoin:round;stroke-miterlimit:2" xmlns="http://www.w3.org/2000/svg"><path d="M2022.77 556c0-3.314-2.68-6-6-6h-38c-3.31 0-6 2.686-6 6v38c0 3.314 2.69 6 6 6h38c3.32 0 6-2.686 6-6v-38Zm55.23 30.545h-38c-3.31 0-6 2.688-6 6 0 3.311 2.69 6 6 6h38c3.31 0 6-2.689 6-6 0-3.312-2.69-6-6-6ZM2010.77 562v26h-26v-26h26Zm67.23 7h-38c-3.31 0-6 2.689-6 6s2.69 6 6 6h38c3.31 0 6-2.689 6-6s-2.69-6-6-6Zm0-16.836h-38c-3.31 0-6 2.688-6 6 0 3.311 2.69 6 6 6h38c3.31 0 6-2.689 6-6 0-3.312-2.69-6-6-6Zm6-57.392c0-3.314-2.69-6-6-6h-38c-3.31 0-6 2.686-6 6v38c0 3.314 2.69 6 6 6h38c3.31 0 6-2.686 6-6v-38Zm-61.23 0c0-3.314-2.68-6-6-6h-38c-3.31 0-6 2.686-6 6v38c0 3.314 2.69 6 6 6h38c3.32 0 6-2.686 6-6v-38Zm49.23 6v26h-26v-26h26Zm-61.23 0v26h-26v-26h26ZM1936 476.098h2.94l7.05 15.139a6.002 6.002 0 0 0 7.97 2.907 5.996 5.996 0 0 0 2.91-7.972l-6.56-14.094c4.08-3.181 7.11-7.834 7.11-13.031 0-6.707-2.24-11.295-5.74-14.331-3.32-2.878-8.04-4.446-14.01-4.446-2.12 0-5.52.088-7.67.088-3.31 0-6 2.686-6 6v42.077c0 3.311 2.69 6 6 6s6-2.689 6-6v-12.337Zm4.35-12a9.952 9.952 0 0 0 3.59-2.231c.79-.783 1.48-1.703 1.48-2.82 0-2.392-.36-4.183-1.6-5.266-1.43-1.239-3.58-1.511-6.15-1.511-.5 0-1.06.004-1.67.012v11.816h4.35Z" style="fill-rule:evenodd;clip-rule:evenodd;stroke-linejoin:round;stroke-miterlimit:2" transform="translate(-1908 -424)"/></svg>

<?xml version="1.0" encoding="UTF-8" standalone="no"?>
<svg
   width="100%"
   height="100%"
   viewBox="0 0 192 192"
   version="1.1"
   xml:space="preserve"
   style="fill-rule:evenodd;clip-rule:evenodd;stroke-linejoin:round;stroke-miterlimit:2;"
   id="svg10"
   sodipodi:docname="phototan.svg"
   inkscape:version="1.2.1 (9c6d41e410, 2022-07-14)"
   xmlns:inkscape="http://www.inkscape.org/namespaces/inkscape"
   xmlns:sodipodi="http://sodipodi.sourceforge.net/DTD/sodipodi-0.dtd"
   xmlns="http://www.w3.org/2000/svg"
   xmlns:svg="http://www.w3.org/2000/svg"><defs
   id="defs14" /><sodipodi:namedview
   id="namedview12"
   pagecolor="#ffffff"
   bordercolor="#000000"
   borderopacity="0.25"
   inkscape:showpageshadow="2"
   inkscape:pageopacity="0.0"
   inkscape:pagecheckerboard="0"
   inkscape:deskcolor="#d1d1d1"
   showgrid="false"
   inkscape:zoom="2.5986859"
   inkscape:cx="98.318923"
   inkscape:cy="121.21511"
   inkscape:window-width="1274"
   inkscape:window-height="1303"
   inkscape:window-x="1282"
   inkscape:window-y="36"
   inkscape:window-maximized="0"
   inkscape:current-layer="svg10" />
    <path
   d="M2022.77,556C2022.77,552.686 2020.09,550 2016.77,550L1978.77,550C1975.46,550 1972.77,552.686 1972.77,556L1972.77,594C1972.77,597.314 1975.46,600 1978.77,600L2016.77,600C2020.09,600 2022.77,597.314 2022.77,594L2022.77,556ZM2078,586.545L2040,586.545C2036.69,586.545 2034,589.233 2034,592.545C2034,595.856 2036.69,598.545 2040,598.545L2078,598.545C2081.31,598.545 2084,595.856 2084,592.545C2084,589.233 2081.31,586.545 2078,586.545ZM2010.77,562L2010.77,588C2010.77,588 1984.77,588 1984.77,588C1984.77,588 1984.77,562 1984.77,562L2010.77,562ZM2078,569L2040,569C2036.69,569 2034,571.689 2034,575C2034,578.311 2036.69,581 2040,581L2078,581C2081.31,581 2084,578.311 2084,575C2084,571.689 2081.31,569 2078,569ZM2078,552.164L2040,552.164C2036.69,552.164 2034,554.852 2034,558.164C2034,561.475 2036.69,564.164 2040,564.164L2078,564.164C2081.31,564.164 2084,561.475 2084,558.164C2084,554.852 2081.31,552.164 2078,552.164ZM2084,494.772C2084,491.458 2081.31,488.772 2078,488.772L2040,488.772C2036.69,488.772 2034,491.458 2034,494.772L2034,532.772C2034,536.086 2036.69,538.772 2040,538.772L2078,538.772C2081.31,538.772 2084,536.086 2084,532.772L2084,494.772ZM2022.77,494.772C2022.77,491.458 2020.09,488.772 2016.77,488.772L1978.77,488.772C1975.46,488.772 1972.77,491.458 1972.77,494.772L1972.77,532.772C1972.77,536.086 1975.46,538.772 1978.77,538.772L2016.77,538.772C2020.09,538.772 2022.77,536.086 2022.77,532.772L2022.77,494.772ZM2072,500.772L2072,526.772C2072,526.772 2046,526.772 2046,526.772C2046,526.772 2046,500.772 2046,500.772L2072,500.772ZM2010.77,500.772L2010.77,526.772C2010.77,526.772 1984.77,526.772 1984.77,526.772C1984.77,526.772 1984.77,500.772 1984.77,500.772L2010.77,500.772ZM1936,476.098L1938.94,476.098L1945.99,491.237C1947.39,494.239 1950.96,495.542 1953.96,494.144C1956.97,492.746 1958.27,489.174 1956.87,486.172L1950.31,472.078C1954.39,468.897 1957.42,464.244 1957.42,459.047C1957.42,452.34 1955.18,447.752 1951.68,444.716C1948.36,441.838 1943.64,440.27 1937.67,440.27C1935.55,440.27 1932.15,440.358 1930,440.358C1926.69,440.358 1924,443.044 1924,446.358L1924,488.435C1924,491.746 1926.69,494.435 1930,494.435C1933.31,494.435 1936,491.746 1936,488.435L1936,476.098ZM1940.35,464.098C1941.63,463.644 1942.92,462.872 1943.94,461.867C1944.73,461.084 1945.42,460.164 1945.42,459.047C1945.42,456.655 1945.06,454.864 1943.82,453.781C1942.39,452.542 1940.24,452.27 1937.67,452.27C1937.17,452.27 1936.61,452.274 1936,452.282L1936,464.098L1940.35,464.098Z"
   id="path4"
   style="fill-rule:evenodd;clip-rule:evenodd;stroke-linejoin:round;stroke-miterlimit:2"
   transform="translate(-1908,-424)"
   inkscape:label="PhotoTan-Form" />
</svg>
